X:4979
T:Padraig O'Keefe's
O:england
R:jig
M:6/8
L:1/8
K:D
ABA DFA|BAF DFA|~d3 ede|fef def|
~g3 gab|afd Bcd|1 e2A efd|cBA Bcd:|2 ABd efe|~d3 dcd
|:e2A efg|f2d fga|gfe fed|edB ABd|
e2A efg|f2d fga|gfe dcB|1 ~A3 ABd:|2 AFA Bcd||
